X:1
T:J. E. Roe
T:Onward
%%score { ( 1 2 ) | ( 3 4 ) }
L:1/8
Q:1/4=184
M:4/2
K:Eb
V:1 treble 
V:2 treble 
V:3 bass 
V:4 bass 
V:1
"^Presto" G6 G2 F4 E4 | c8 B8 | B6 G2 F4 E4 | F16 | G6 G2 F4 E4 | c8 B8 | B4 =A4 G4 A4 | B16 | %8
 F6 G2 A4 A4 | A8 G8 | F4 c4 B4 A4 | G16 | G6 A2 B4 B4 | B8 A8 | G4 F4 C4 D4 | E16 | E6 E2 F4 E4 | %17
 c8 B8 | B6 G2 F4 E4 | F16 | G6 G2 F4 E4 | c8 B8 | B4 A4 F6 E2 | E16 | E8 E8 |] %25
V:2
 E6 E2 D4 E4 | E8 E8 | E6 E2 C4 C4 | D16 | E6 E2 D4 E4 | E8 E8 | E4 E4 E4 E4 | D16 | D6 E2 F4 F4 | %9
 E8 E8 | D4 D4 E4 D4 | E16 | =E6 F2 G4 G4 | F8 F8 | E4 C4 C4 B,4 | (B,8 C8) | E6 E2 D4 E4 | E8 E8 | %18
 E6 E2 C4 C4 | D16 | E6 E2 D4 E4 | E8 E8 | E4 E4 D6 E2 | E16 | C8 B,8 |] %25
V:3
 B,6 B,2 A,4 B,4 | A,8 B,8 | G,6 B,2 =A,4 A,4 | B,16 | B,6 B,2 A,4 B,4 | A,8 B,8 | C4 C4 B,4 C4 | %7
 B,16 | B,6 B,2 B,4 B,4 | B,8 B,8 | B,4 B,4 B,4 B,4 | B,16 | C6 C2 C4 C4 | C8 C8 | %14
 B,4 A,4 A,4 A,4 | (G,8 A,8) | B,6 B,2 A,4 B,4 | A,8 B,8 | G,6 B,2 =A,4 A,4 | B,16 | %20
 B,6 B,2 A,4 B,4 | A,8 B,8 | _D4 ^C4 A,6 G,2 | G,16 | A,8 G,8 |] %25
V:4
 E,6 E,2 F,4 G,4 | A,8 G,8 | E,6 E,2 F,4 F,4 | B,,16 | E,6 E,2 F,4 G,4 | A,8 G,8 | %6
 F,4 F,4 F,4 F,4 | B,,16 | B,,6 B,,2 D,4 D,4 | E,8 E,8 | B,4 A,4 G,4 F,4 | E,16 | %12
 C,6 C,2 =E,4 E,4 | F,8 F,,8 | G,,4 A,,4 B,,4 B,,4 | E,16 | E,6 E,2 F,4 G,4 | A,8 G,8 | %18
 E,6 E,2 F,4 F,4 | B,,16 | E,6 E,2 F,4 G,4 | A,8 G,8 | A,,4 A,,4 B,,6 E,2 | E,16 | A,,8 E,8 |] %25

